projects/canopy/src/assets/brand-icons/multi-asset.svg

<svg width="320" height="320" viewBox="0 0 320 320" fill="none" xmlns="http://www.w3.org/2000/svg">
<g id="am-multi-asset">
<g id="lg-icon-fill-primary">
<path d="M267.913 249.189C245.321 276.524 213.197 294.267 178.029 298.834L172.41 255.56C196.616 252.416 218.727 240.203 234.277 221.389L267.913 249.189Z" fill="#42AEEA"/>
<path d="M278.206 84.9844C294.041 109.937 301.574 139.261 299.725 168.757C297.877 198.253 286.742 226.407 267.915 249.188L208.528 200.107C216.995 189.863 222.003 177.202 222.834 163.938C223.665 150.674 220.277 137.487 213.156 126.266L278.206 84.9844Z" fill="#42AEEA"/>
<path d="M159.986 97.042C150.72 97.044 141.568 99.0913 133.184 103.038C124.801 106.985 117.391 112.734 111.485 119.874C105.579 127.015 101.323 135.371 99.0194 144.347C96.7156 153.322 96.4209 162.695 98.1571 171.797L22.4794 186.233C18.6183 165.993 19.2731 145.149 24.3964 125.19C29.5197 105.232 38.9855 86.6507 52.1181 70.7725C65.2508 54.8942 81.727 42.1105 100.37 33.334C119.013 24.5575 139.364 20.0045 159.97 20L159.986 97.042Z" fill="#42AEEA"/>
</g>
<path id="Outlines" fill-rule="evenodd" clip-rule="evenodd" d="M160 16C184.255 16 208.117 22.1267 229.372 33.8115C250.627 45.4965 268.586 62.3615 281.583 82.8408C297.871 108.507 305.619 138.669 303.718 169.007C301.816 199.345 290.363 228.304 270.998 251.735L270.996 251.737C247.758 279.853 214.716 298.103 178.544 302.801C178.483 302.809 178.422 302.814 178.36 302.819C178.303 302.829 178.245 302.839 178.187 302.847C141.824 307.476 105.065 298.065 75.4024 276.53C45.7393 254.996 25.4055 222.959 18.545 186.951C18.5445 186.949 18.5434 186.947 18.543 186.944C14.5798 166.138 15.2561 144.712 20.5225 124.196C25.7922 103.668 35.5282 84.5546 49.0362 68.2227C62.5441 51.8909 79.4905 38.742 98.666 29.7148C117.842 20.6876 138.774 16.0046 159.969 16H160ZM27.2178 189.4C34.3902 221.797 53.176 250.508 80.1026 270.056C107.037 289.609 140.165 298.577 173.2 295.354L166.904 245.902C146.457 247.546 126.041 241.843 109.37 229.74C92.7044 217.641 80.9591 200.003 76.1866 180.06L27.2178 189.4ZM234.749 226.968C219.624 243.851 199.224 255.119 176.88 258.931L181.473 294.291C212.767 289.288 241.336 273.509 262.234 249.685L234.749 226.968ZM163.986 97.041C163.987 99.2501 162.196 101.041 159.987 101.042C151.31 101.044 142.739 102.961 134.888 106.657C127.037 110.353 120.099 115.737 114.568 122.424C109.038 129.111 105.051 136.936 102.894 145.341C100.736 153.746 100.46 162.524 102.086 171.048C102.5 173.218 101.076 175.313 98.9063 175.727L84.0547 178.559C88.4391 196.503 99.0524 212.364 114.07 223.267C130.175 234.958 150.132 240.067 169.874 237.554L170.079 237.533C172.189 237.373 174.076 238.894 174.347 241.017L175.621 251.029C196.046 247.525 214.7 237.251 228.578 221.866L205.98 203.19C205.163 202.515 204.647 201.541 204.547 200.485C204.447 199.429 204.77 198.376 205.445 197.559C213.374 187.965 218.063 176.109 218.842 163.688C219.62 151.266 216.448 138.917 209.779 128.409C208.596 126.544 209.148 124.072 211.013 122.889L235.76 107.183C227.648 95.5466 216.955 85.9182 204.493 79.0674C192.025 72.2131 178.158 68.3429 163.98 67.7314L163.986 97.041ZM243.499 111.747C243.494 111.75 243.488 111.753 243.483 111.756L218.575 127.563C224.748 138.711 227.627 151.416 226.826 164.188C226.026 176.961 221.583 189.206 214.067 199.495L267.334 243.519C284.107 221.963 294.021 195.827 295.733 168.507C297.446 141.186 290.872 114.017 276.922 90.5361L243.499 111.747ZM155.97 24.0605C137.324 24.6133 118.977 28.996 102.074 36.9531C83.9639 45.4789 67.9587 57.8976 55.2012 73.3223C42.4437 88.7469 33.2475 106.797 28.2705 126.186C23.6281 144.271 22.7639 163.104 25.7129 181.513L78.5235 171.451L78.7188 171.419C78.7806 171.41 78.8424 171.402 78.9043 171.396L93.5967 168.595C92.5063 160.171 93.0265 151.603 95.1446 143.352C97.5949 133.806 102.122 124.919 108.403 117.325C114.684 109.731 122.564 103.616 131.48 99.4189C139.188 95.7905 147.506 93.6724 155.985 93.1631L155.97 24.0605ZM164 59.7266C179.52 60.3456 194.704 64.5574 208.347 72.0576C221.989 79.5576 233.681 90.1209 242.52 102.893L272.634 83.7812C260.565 65.9465 244.423 51.2149 225.519 40.8223C206.614 30.4294 185.526 24.6919 164 24.0586V59.7266Z" fill="#1D1D1B"/>
</g>
</svg>

<svg xmlns="http://www.w3.org/2000/svg" width="320" height="320" fill="none" viewBox="0 0 320 320"><g id="am-multi-asset"><path id="lg-icon-fill-primary" fill="#42AEEA" d="M267.913 249.189a140 140 0 0 1-89.884 49.645l-5.619-43.274a96.37 96.37 0 0 0 61.867-34.171zm10.293-164.205a140 140 0 0 1-10.291 164.204l-59.387-49.081a62.95 62.95 0 0 0 4.628-73.841zm-118.22 12.058a62.96 62.96 0 0 0-48.501 22.832 62.96 62.96 0 0 0-13.328 51.923L22.48 186.233a140 140 0 0 1 77.89-152.899A140 140 0 0 1 159.97 20z"/><path id="Outlines" fill="#1D1D1B" fill-rule="evenodd" d="M160 16a144.001 144.001 0 0 1 110.998 235.735l-.002.002a144 144 0 0 1-92.452 51.064 4 4 0 0 1-.184.018q-.086.016-.173.028A144 144 0 0 1 18.545 186.951l-.002-.007A144 144 0 0 1 159.969 16zM27.218 189.4a136 136 0 0 0 52.885 80.656 136 136 0 0 0 93.097 25.298l-6.296-49.452a86.18 86.18 0 0 1-90.717-65.842zm207.531 37.568a100.36 100.36 0 0 1-57.869 31.963l4.593 35.36a136 136 0 0 0 80.761-44.606zM163.986 97.041a4 4 0 0 1-3.999 4.001 58.96 58.96 0 0 0-45.419 21.382 58.96 58.96 0 0 0-12.482 48.624 4 4 0 0 1-3.18 4.679l-14.851 2.832a78.18 78.18 0 0 0 30.015 44.708 78.2 78.2 0 0 0 55.804 14.287l.205-.021a4 4 0 0 1 4.268 3.484l1.274 10.012a92.35 92.35 0 0 0 52.957-29.163L205.98 203.19a4 4 0 0 1-.535-5.631 58.96 58.96 0 0 0 4.334-69.15 4 4 0 0 1 1.234-5.52l24.747-15.706a92.35 92.35 0 0 0-31.267-28.116 92.36 92.36 0 0 0-40.513-11.336zm79.513 14.706-.016.009-24.908 15.807a66.96 66.96 0 0 1-4.508 71.932l53.267 44.024a136 136 0 0 0 9.588-152.983zM155.97 24.061a136 136 0 0 0-127.7 102.125 136 136 0 0 0-2.557 55.327l52.81-10.062.196-.032q.093-.014.185-.023l14.693-2.801a66.957 66.957 0 0 1 62.388-75.432zM164 59.727c15.52.619 30.704 4.83 44.347 12.33a100.36 100.36 0 0 1 34.173 30.836l30.114-19.112A136 136 0 0 0 164 24.06z" clip-rule="evenodd"/></g></svg>
